assets/img/braze_icons/coins-02.svg

<svg fill="none" height="24" viewBox="0 0 24 24" width="24" xmlns="http://www.w3.org/2000/svg"><g fill="#801ed7"><path d="m9 5c-.32233 0-.6411.01525-.95562.04507 1.37671-2.41604 3.97592-4.04507 6.95562-4.04507 4.4183 0 8 3.58172 8 8 0 2.9797-1.629 5.5789-4.0451 6.9556.0298-.3145.0451-.6333.0451-.9556 0-5.52285-4.4772-10-10-10z"/><path clip-rule="evenodd" d="m1 15c0-3.8003 2.64986-6.9817 6.20269-7.7973.57773-.13263 1.17934-.2027 1.79731-.2027 4.4183 0 8 3.5817 8 8 0 .618-.0701 1.2196-.2027 1.7973-.8156 3.5528-3.997 6.2027-7.7973 6.2027-4.41828 0-8-3.5817-8-8zm8.47186-3.8817c.32516.174.52814.5129.52814.8817v4.5h.5c.5523 0 1 .4477 1 1s-.4477 1-1 1h-3c-.55228 0-1-.4477-1-1s.44772-1 1-1h.5v-2.6339c-.45297.2621-1.0377.1301-1.33205-.3114-.30635-.4595-.18218-1.0804.27735-1.3867l1.5-1c.30686-.2046.7014-.2237 1.02656-.0497z" fill-rule="evenodd"/></g></svg>

<svg width="24" height="24" viewBox="0 0 24 24" fill="none" xmlns="http://www.w3.org/2000/svg">
<path d="M9 5C8.67767 5 8.3589 5.01525 8.04438 5.04507C9.42109 2.62903 12.0203 1 15 1C19.4183 1 23 4.58172 23 9C23 11.9797 21.371 14.5789 18.9549 15.9556C18.9847 15.6411 19 15.3223 19 15C19 9.47715 14.5228 5 9 5Z" fill="#801ED7"/>
<path fill-rule="evenodd" clip-rule="evenodd" d="M1 15C1 11.1997 3.64986 8.0183 7.20269 7.2027C7.78042 7.07007 8.38203 7 9 7C13.4183 7 17 10.5817 17 15C17 15.618 16.9299 16.2196 16.7973 16.7973C15.9817 20.3501 12.8003 23 9 23C4.58172 23 1 19.4183 1 15ZM9.47186 11.1183C9.79702 11.2923 10 11.6312 10 12V16.5H10.5C11.0523 16.5 11.5 16.9477 11.5 17.5C11.5 18.0523 11.0523 18.5 10.5 18.5H7.5C6.94772 18.5 6.5 18.0523 6.5 17.5C6.5 16.9477 6.94772 16.5 7.5 16.5H8V13.8661C7.54703 14.1282 6.9623 13.9962 6.66795 13.5547C6.3616 13.0952 6.48577 12.4743 6.9453 12.168L8.4453 11.168C8.75216 10.9634 9.1467 10.9443 9.47186 11.1183Z" fill="#801ED7"/>
</svg>
